X: 453
T:Iron Legs
M:4/4
L:1/8
Q:1/4=90
S:Mobberley session
R:English reel
N:Posted to the woodenflute mailing list November 2001
Z:Steve Mansfield
K:D
AG | F2 AF E2 AG | FGEF D2 A2 | B2 c2 d2 ed | cdBc A3 G |
F2 AF E2 AG | FGEF D2 A2 | Bcde fedc | d2 d2 d2 :: g2 |
fgfg efef | fgfg efef | dede cdcd | dede cdcd | BcBc ABAc |
BcBc A3 A | Bcde fedc | d2 d2 d2 :|
<end>
<start>
